polaris-icons/icons/new-icons/ColumnWithTextMajor.svg

<svg width="20" height="20" viewBox="0 0 20 20" fill="none" xmlns="http://www.w3.org/2000/svg">
<path fill-rule="evenodd" clip-rule="evenodd" d="M3 5.75C3 4.7835 3.7835 4 4.75 4H8C8.9665 4 9.75 4.7835 9.75 5.75V8.75C9.75 9.7165 8.9665 10.5 8 10.5H4.75C3.7835 10.5 3 9.7165 3 8.75V5.75ZM4.75 5.5C4.61193 5.5 4.5 5.61193 4.5 5.75V8.75C4.5 8.88807 4.61193 9 4.75 9H8C8.13807 9 8.25 8.88807 8.25 8.75V5.75C8.25 5.61193 8.13807 5.5 8 5.5H4.75Z" fill="#4A4A4A"/>
<path d="M3 12.5C3 12.0858 3.33579 11.75 3.75 11.75H9C9.41421 11.75 9.75 12.0858 9.75 12.5C9.75 12.9142 9.41421 13.25 9 13.25H3.75C3.33579 13.25 3 12.9142 3 12.5Z" fill="#4A4A4A"/>
<path d="M3.75 14.5C3.33579 14.5 3 14.8358 3 15.25C3 15.6642 3.33579 16 3.75 16H6.375C6.78921 16 7.125 15.6642 7.125 15.25C7.125 14.8358 6.78921 14.5 6.375 14.5H3.75Z" fill="#4A4A4A"/>
<path d="M11 14.5C10.5858 14.5 10.25 14.8358 10.25 15.25C10.25 15.6642 10.5858 16 11 16H13.625C14.0392 16 14.375 15.6642 14.375 15.25C14.375 14.8358 14.0392 14.5 13.625 14.5H11Z" fill="#4A4A4A"/>
<path d="M11 11.75C10.5858 11.75 10.25 12.0858 10.25 12.5C10.25 12.9142 10.5858 13.25 11 13.25H16.25C16.6642 13.25 17 12.9142 17 12.5C17 12.0858 16.6642 11.75 16.25 11.75H11Z" fill="#4A4A4A"/>
<path fill-rule="evenodd" clip-rule="evenodd" d="M12 4C11.0335 4 10.25 4.7835 10.25 5.75V8.75C10.25 9.7165 11.0335 10.5 12 10.5H15.25C16.2165 10.5 17 9.7165 17 8.75V5.75C17 4.7835 16.2165 4 15.25 4H12ZM11.75 5.75C11.75 5.61193 11.8619 5.5 12 5.5H15.25C15.3881 5.5 15.5 5.61193 15.5 5.75V8.75C15.5 8.88807 15.3881 9 15.25 9H12C11.8619 9 11.75 8.88807 11.75 8.75V5.75Z" fill="#4A4A4A"/>
</svg>

<svg viewBox="0 0 20 20" xmlns="http://www.w3.org/2000/svg"><path fill-rule="evenodd" d="M3 5.75c0-.966.784-1.75 1.75-1.75h3.25c.966 0 1.75.784 1.75 1.75v3a1.75 1.75 0 0 1-1.75 1.75h-3.25a1.75 1.75 0 0 1-1.75-1.75v-3Zm1.75-.25a.25.25 0 0 0-.25.25v3c0 .138.112.25.25.25h3.25a.25.25 0 0 0 .25-.25v-3a.25.25 0 0 0-.25-.25h-3.25Z" fill="#5C5F62"/><path d="M3 12.5a.75.75 0 0 1 .75-.75h5.25a.75.75 0 0 1 0 1.5h-5.25a.75.75 0 0 1-.75-.75Z" fill="#5C5F62"/><path d="M3.75 14.5a.75.75 0 0 0 0 1.5h2.625a.75.75 0 0 0 0-1.5h-2.625Z" fill="#5C5F62"/><path d="M11 14.5a.75.75 0 0 0 0 1.5h2.625a.75.75 0 0 0 0-1.5h-2.625Z" fill="#5C5F62"/><path d="M11 11.75a.75.75 0 0 0 0 1.5h5.25a.75.75 0 0 0 0-1.5h-5.25Z" fill="#5C5F62"/><path fill-rule="evenodd" d="M12 4a1.75 1.75 0 0 0-1.75 1.75v3c0 .966.784 1.75 1.75 1.75h3.25a1.75 1.75 0 0 0 1.75-1.75v-3a1.75 1.75 0 0 0-1.75-1.75h-3.25Zm-.25 1.75a.25.25 0 0 1 .25-.25h3.25a.25.25 0 0 1 .25.25v3a.25.25 0 0 1-.25.25h-3.25a.25.25 0 0 1-.25-.25v-3Z" fill="#5C5F62"/></svg>
